X:1
T:- # -
T:EG 344 Vater unser im Himmelreich Martin Luther 1539
%%score 1 2 3
L:1/8
Q:1/4=80
M:4/4
K:Bb
V:1 treble transpose=-2 nm="Klarinette in B" snm="Kl."
V:2 treble transpose=-7 nm="Horn in F" snm="Hn."
V:3 bass nm="Violincello" snm="Vc."
V:1
[K:C] z D (D^C) z E (ED) | z (F _B,E FE F)(A | _BA FG FE D)A | (d^c) z =c (c!courtesy!=B) z _B | %4
 (_BA) z ^C (DA) AG | (cAFG A2) z2 | z F (FE) z G (GF) | z A (AG cAFG | A2 z2 z4 | %9
 z (e ga c'_b ag | a2) z2 z A A_B) | z d (dc) z A (AG) | F(A _BA FG FE | D4) z (e fe | %14
 cd cB A2) z2 | z4 z d (d^c) | z e (ed) z (f _Be | fe f)(a _ba fg | fed) A2 A2 ^G | %19
 (^GA) z E (EF) z c- | c(A B^c de fe | d2) z2 z2 _B2 | (A!courtesy!=B ^cA){c} d4 |] %23
V:2
[K:F] z B (BA) z c (cB) | z (G BA G^F"^Martin Böttger\nZwickau 2017" G2) | z4"^c. f." d4 | %3
 d2 B2 c2 d2 | B2 A2 G4 | z4 D4 | D2 C2 F2 D2 | B,2 C2 D4 | z8 | z8 | D4 F2 G2 | B2 A2 G2 ^F2 | %12
"^," G4 G4 | A2 G2 F2 !courtesy!=E2 | D2 C2 D4 | z4 z B (BA) | z c (cB) z (G BA | G^F G2) z4 | %18
 G4 F2 E2 | F2 D2 D2 C2 |"^," B,4 d4 | _e2 d2 B2 c2 | B2 A2{A} G4 |] %23
V:3
 C,2 G,2 G,,2 C,2 | C2 (F,^F, G,2) C,2 | F,2 G,2 G,,2 C,2 | z8 | z2 G,2 E,2 F,2 | %5
 G,_A, B,2 (E,C,_A,,B,, | E,2) B,2 B,,2 E,2 | G,2 D,2 E,G,C_A, | z (G, B,C ED C=B, | %9
 C2) z2 _A,2 B,2 | E,_A, G,F, E,2 _A,,2 | !courtesy!=A,,2 B,,2 C,2 G,2 | C,2 z2 z2 (G,2 | %13
 _A,2 G,2 E,2 F,2 | G,2 D,2 E,)(G, _A,G, | E,F, E,D, C,2) G,2 | G,,2 C,2 C2 (F,^F, | G,2 C,2 z4 | %18
 z4 G,2 D,2 | G,2 =B,,2 C,2 D,2 | E,2 z2 E,D, C,B,, | _A,,2) z2 z2 D,2 | G,2 G,,2 C,4 |] %23

